imgs/platform-4.svg

<svg width="22" height="22" viewBox="0 0 22 22" fill="none" xmlns="http://www.w3.org/2000/svg">
<path d="M11.825 9.625C11.275 9.4875 10.725 9.2125 10.3125 8.8C9.9 8.6625 9.7625 8.25 9.7625 7.975C9.7625 7.7 9.9 7.2875 10.175 7.15C10.5875 6.875 11 6.6 11.4125 6.7375C12.2375 6.7375 12.925 7.15 13.3375 7.7L14.575 6.05C14.1625 5.6375 13.75 5.3625 13.3375 5.0875C12.925 4.8125 12.375 4.675 11.825 4.675V2.75H10.175V4.675C9.4875 4.8125 8.8 5.225 8.25 5.775C7.7 6.4625 7.2875 7.2875 7.425 8.1125C7.425 8.9375 7.7 9.7625 8.25 10.3125C8.9375 11 9.9 11.4125 10.725 11.825C11.1375 11.9625 11.6875 12.2375 12.1 12.5125C12.375 12.7875 12.5125 13.2 12.5125 13.6125C12.5125 14.025 12.375 14.4375 12.1 14.85C11.6875 15.2625 11.1375 15.4 10.725 15.4C10.175 15.4 9.4875 15.2625 9.075 14.85C8.6625 14.575 8.25 14.1625 7.975 13.75L6.6 15.2625C7.0125 15.8125 7.425 16.225 7.975 16.6375C8.6625 17.05 9.4875 17.4625 10.3125 17.4625V19.25H11.825V17.1875C12.65 17.05 13.3375 16.6375 13.8875 16.0875C14.575 15.4 14.9875 14.3 14.9875 13.3375C14.9875 12.5125 14.7125 11.55 14.025 11C13.3375 10.3125 12.65 9.9 11.825 9.625ZM11 0C4.95 0 0 4.95 0 11C0 17.05 4.95 22 11 22C17.05 22 22 17.05 22 11C22 4.95 17.05 0 11 0ZM11 20.4875C5.775 20.4875 1.5125 16.225 1.5125 11C1.5125 5.775 5.775 1.5125 11 1.5125C16.225 1.5125 20.4875 5.775 20.4875 11C20.4875 16.225 16.225 20.4875 11 20.4875Z" fill="#006AFF"/>
</svg>

<svg width="22" height="22" fill="none" xmlns="http://www.w3.org/2000/svg"><path d="M11.825 9.625c-.55-.137-1.1-.412-1.512-.825-.413-.138-.55-.55-.55-.825 0-.275.137-.688.412-.825.412-.275.825-.55 1.237-.413.825 0 1.513.413 1.925.963l1.238-1.65c-.412-.412-.825-.688-1.237-.962-.413-.276-.963-.413-1.513-.413V2.75h-1.65v1.925c-.688.138-1.375.55-1.925 1.1-.55.688-.963 1.512-.825 2.338 0 .825.275 1.65.825 2.2.688.687 1.65 1.1 2.475 1.512.412.138.963.413 1.375.688.275.274.412.687.412 1.1 0 .412-.137.825-.412 1.237-.412.412-.963.55-1.375.55-.55 0-1.237-.138-1.65-.55a4.185 4.185 0 0 1-1.1-1.1L6.6 15.262c.413.55.825.963 1.375 1.375.688.413 1.513.825 2.338.825v1.788h1.512v-2.063c.825-.137 1.513-.55 2.063-1.1.687-.687 1.1-1.787 1.1-2.75 0-.825-.275-1.787-.963-2.337-.688-.688-1.375-1.1-2.2-1.375ZM11 0C4.95 0 0 4.95 0 11s4.95 11 11 11 11-4.95 11-11S17.05 0 11 0Zm0 20.488c-5.225 0-9.488-4.263-9.488-9.488S5.775 1.512 11 1.512 20.488 5.775 20.488 11 16.224 20.488 11 20.488Z" fill="#006AFF"/></svg>
